!!!COM: Music21
!!!OTL: hornpipe_OConnors-Favourite
!!!OMV: hornpipe_OConnors-Favourite
**kern
*clefG2
*k[f#c#]
*D:
*M4/4
=1
12aL
12b
12cc#J
=||
8.ddL
16aJk
8.f#L
16aJk
8.ddL
16ff#Jk
8.aaL
16ff#Jk
=
8.ggL
16ff#Jk
8.eeL
16cc#Jk
4dd
4a
=
8.bL
16ddJk
8.aL
16ddJk
8.gL
16ddJk
8.f#L
16ddJk
=
8.f#L
16eJk
8.eL
16dJk
4e
12aL
12b
12cc#J
!!linebreak:original
=
8.ddL
16aJk
8.f#L
16aJk
8.ddL
16ff#Jk
8.aaL
16ff#Jk
=
8.ggL
16ff#Jk
8.eeL
16cc#Jk
8.ddL
16cc#Jk
8.bL
16aJk
=
8.bL
16cc#Jk
8.ddL
16bJk
8.aL
16gJk
8.f#L
16eJk
=
4d
12dL
12d
12dJ
4d
12aL
12b
12cc#J
!!linebreak:original
=||
8.ddL
16aJk
8.f#L
16aJk
8.ddL
16ff#Jk
8.aaL
16ff#Jk
=
8.ggL
16ff#Jk
8.eeL
16cc#Jk
4dd
4a
=
8.bL
16ddJk
8.aL
16ddJk
8.gL
16ddJk
8.f#L
16ddJk
=
8.f#L
16eJk
8.eL
16dJk
4e
12aL
12b
12cc#J
!!linebreak:original
=
8.ddL
16aJk
8.f#L
16aJk
8.ddL
16ff#Jk
8.aaL
16ff#Jk
=
8.ggL
16ff#Jk
8.eeL
16cc#Jk
8.ddL
16cc#Jk
8.bL
16aJk
=
8.bL
16cc#Jk
8.ddL
16bJk
8.aL
16gJk
8.f#L
16eJk
=
4d
12dL
12d
12dJ
4d
8.f#L
16gJk
!!linebreak:original
=||
8.aL
16f#Jk
8.ddL
16eeJk
8.ff#L
16eeJk
8.aL
16f#Jk
=
8.gL
16aJk
8.bL
16gJk
4e
4ff#
=
8.ggL
16ff#Jk
8.eeL
16ddJk
8.cc#L
16ddJk
8.eeL
16ff#Jk
=
8.eeL
16ddJk
8.cc#L
16bJk
4a
12aL
12b
12cc#J
=
4dd
8.aL
16ddJk
4ff#
8.ddL
16ff#Jk
!!linebreak:original
=
4aa
8.ff#L
16ddJk
8.aL
16ddJk
4ff#
=
8.ggL
16ff#Jk
8.eeL
16ddJk
8.cc#L
16aJk
8.bL
16cc#Jk
=
4dd
12ddL
12dd
12ddJ
4dd
8.f#L
16gJk
=||
*M4/4
12aL
12b
12cc#J
=||
8.ddL
16aJk
8.f#L
16aJk
8.ddL
16ff#Jk
8.aaL
16ff#Jk
!!linebreak:original
=
8.ggL
16ff#Jk
8.eeL
16cc#Jk
4dd
4a
=
8.bL
16ddJk
8.aL
16ddJk
8.gL
16ddJk
8.f#L
16ddJk
=
8.f#L
16eJk
8.eL
16dJk
4e
12aL
12b
12cc#J
=
8.ddL
16aJk
8.f#L
16aJk
8.ddL
16ff#Jk
8.aaL
16ff#Jk
!!linebreak:original
=
8.ggL
16ff#Jk
8.eeL
16cc#Jk
8.ddL
16cc#Jk
8.bL
16aJk
=
8.bL
16cc#Jk
8.ddL
16bJk
8.aL
16gJk
8.f#L
16eJk
=
4d
12dL
12d
12dJ
4d
12aL
12b
12cc#J
=||
8.ddL
16aJk
8.f#L
16aJk
8.ddL
16ff#Jk
8.aaL
16ff#Jk
!!linebreak:original
=
8.ggL
16ff#Jk
8.eeL
16cc#Jk
4dd
4a
=
8.bL
16ddJk
8.aL
16ddJk
8.gL
16ddJk
8.f#L
16ddJk
=
8.f#L
16eJk
8.eL
16dJk
4e
12aL
12b
12cc#J
=
8.ddL
16aJk
8.f#L
16aJk
8.ddL
16ff#Jk
8.aaL
16ff#Jk
!!linebreak:original
=
8.ggL
16ff#Jk
8.eeL
16cc#Jk
8.ddL
16cc#Jk
8.bL
16aJk
=
8.bL
16cc#Jk
8.ddL
16bJk
8.aL
16gJk
8.f#L
16eJk
=
4d
12dL
12d
12dJ
4d
8.f#L
16gJk
=||
8.aL
16f#Jk
8.ddL
16eeJk
8.ff#L
16eeJk
8.aL
16f#Jk
!!pagebreak:original
=
8.gL
16aJk
8.bL
16gJk
4e
4ff#
=
8.ggL
16ff#Jk
8.eeL
16ddJk
8.cc#L
16ddJk
8.eeL
16ff#Jk
=
8.eeL
16ddJk
8.cc#L
16bJk
4a
12aL
12b
12cc#J
=
4dd
8.aL
16ddJk
4ff#
8.ddL
16ff#Jk
=
4aa
8.ff#L
16ddJk
8.aL
16ddJk
4ff#
!!linebreak:original
=
8.ggL
16ff#Jk
8.eeL
16ddJk
8.cc#L
16aJk
8.bL
16cc#Jk
=
4dd
12ddL
12dd
12ddJ
4dd
4ryy
=||
*-
